X: 3069
Q:"Strathspey."
M: C
L: 1/8
K: G
ue |\
vd>vBuG>uB d2d>e | g>f (g<b) e2(e>f) |\
g>ag>e (d<B) g>d |[1 c>BA>G A3 :|[2 c>BA>G A2 (g>a) |]\
b>ag>B d>eg>a | b>ag>B d2(B>A) |
b>ag>B d>eg>a | b>ag>B d2 (3(gab) |\
c'>ba>g e>fg>e | d<b a>b g3 |]


